public/icons/discord.svg

<svg viewBox="0 0 20 20" xmlns="http://www.w3.org/2000/svg">
<path d="M16.2378 4.13731C15.0905 3.6109 13.8602 3.22306 12.5739 3.00093C12.5505 2.99664 12.5271 3.00736 12.515 3.02879C12.3568 3.3102 12.1815 3.67732 12.0588 3.96588C10.6753 3.75875 9.29889 3.75875 7.94374 3.96588C7.82099 3.67091 7.63936 3.3102 7.48043 3.02879C7.46836 3.00807 7.44496 2.99736 7.42154 3.00093C6.13593 3.22235 4.90567 3.61019 3.7577 4.13731C3.74776 4.14159 3.73924 4.14874 3.73359 4.15802C1.40004 7.64429 0.760787 11.0449 1.07439 14.4033C1.0758 14.4197 1.08503 14.4354 1.0978 14.4454C2.63741 15.5761 4.12878 16.2625 5.59246 16.7175C5.61588 16.7246 5.6407 16.716 5.65561 16.6967C6.00184 16.2239 6.31048 15.7254 6.57511 15.2011C6.59072 15.1704 6.57582 15.134 6.5439 15.1218C6.05435 14.9361 5.5882 14.7097 5.1398 14.4526C5.10433 14.4319 5.10149 14.3811 5.13412 14.3568C5.22848 14.2861 5.32286 14.2126 5.41297 14.1383C5.42927 14.1247 5.45198 14.1219 5.47115 14.1304C8.41696 15.4754 11.6062 15.4754 14.5172 14.1304C14.5364 14.1212 14.5591 14.124 14.5761 14.1376C14.6662 14.2119 14.7606 14.2861 14.8557 14.3568C14.8883 14.3811 14.8862 14.4319 14.8507 14.4526C14.4023 14.7147 13.9361 14.9361 13.4459 15.1211C13.414 15.1333 13.3998 15.1704 13.4154 15.2011C13.6857 15.7246 13.9943 16.2232 14.3342 16.696C14.3484 16.716 14.3739 16.7246 14.3973 16.7175C15.8681 16.2625 17.3595 15.5761 18.8991 14.4454C18.9126 14.4354 18.9211 14.4204 18.9225 14.404C19.2978 10.5213 18.2939 7.14861 16.2612 4.15873C16.2562 4.14874 16.2477 4.14159 16.2378 4.13731ZM7.01502 12.3584C6.12812 12.3584 5.39735 11.5441 5.39735 10.5442C5.39735 9.54421 6.11395 8.72997 7.01502 8.72997C7.92315 8.72997 8.64686 9.55136 8.63266 10.5442C8.63266 11.5441 7.91606 12.3584 7.01502 12.3584ZM12.9961 12.3584C12.1092 12.3584 11.3784 11.5441 11.3784 10.5442C11.3784 9.54421 12.095 8.72997 12.9961 8.72997C13.9042 8.72997 14.6279 9.55136 14.6137 10.5442C14.6137 11.5441 13.9042 12.3584 12.9961 12.3584Z" />
</svg>

<svg viewBox="0 0 20 20" xmlns="http://www.w3.org/2000/svg"><path d="M16.238 4.137a14.845 14.845 0 0 0-3.664-1.136.056.056 0 0 0-.059.028c-.158.281-.334.648-.456.937a13.703 13.703 0 0 0-4.115 0 9.483 9.483 0 0 0-.464-.937A.058.058 0 0 0 7.422 3c-1.286.221-2.516.61-3.664 1.136a.052.052 0 0 0-.024.021C1.4 7.644.76 11.045 1.074 14.403c.002.017.011.032.024.042a14.926 14.926 0 0 0 4.494 2.273.058.058 0 0 0 .064-.021c.346-.473.654-.972.92-1.496a.057.057 0 0 0-.032-.08 9.831 9.831 0 0 1-1.404-.668.058.058 0 0 1-.006-.096 7.67 7.67 0 0 0 .279-.219.056.056 0 0 1 .058-.008c2.946 1.345 6.135 1.345 9.046 0a.056.056 0 0 1 .06.008c.09.074.184.148.279.219a.058.058 0 0 1-.005.096 9.228 9.228 0 0 1-1.405.668.057.057 0 0 0-.03.08c.27.524.578 1.022.918 1.495.014.02.04.029.063.021a14.877 14.877 0 0 0 4.502-2.272.058.058 0 0 0 .023-.041c.376-3.883-.628-7.255-2.66-10.245a.046.046 0 0 0-.024-.022Zm-9.223 8.221c-.887 0-1.618-.814-1.618-1.814S6.114 8.73 7.015 8.73c.908 0 1.632.821 1.618 1.814 0 1-.717 1.814-1.618 1.814Zm5.981 0c-.887 0-1.618-.814-1.618-1.814s.717-1.814 1.618-1.814c.908 0 1.632.821 1.618 1.814 0 1-.71 1.814-1.618 1.814Z"/></svg>
